austria/municipalities/40619.svg

<?xml version="1.0" encoding="UTF-8"?>
<!DOCTYPE svg PUBLIC "-//W3C//DTD SVG 1.1//EN" "http://www.w3.org/Graphics/SVG/1.1/DTD/svg11.dtd">
<svg xmlns="http://www.w3.org/2000/svg" version="1.1" width="166px" height="207px" style="shape-rendering:geometricPrecision; text-rendering:geometricPrecision; image-rendering:optimizeQuality; fill-rule:evenodd; clip-rule:evenodd" xmlns:xlink="http://www.w3.org/1999/xlink">
<g><path style="opacity:1" fill="#000000" d="M -0.5,-0.5 C 54.8333,-0.5 110.167,-0.5 165.5,-0.5C 165.5,43.8333 165.5,88.1667 165.5,132.5C 160.089,165.759 141.756,188.926 110.5,202C 105.336,203.369 100.336,204.869 95.5,206.5C 86.8333,206.5 78.1667,206.5 69.5,206.5C 29.5124,196.512 6.17911,171.179 -0.5,130.5C -0.5,86.8333 -0.5,43.1667 -0.5,-0.5 Z"/></g>
<g><path style="opacity:1" fill="#fe9900" d="M 3.5,3.5 C 56.1667,3.5 108.833,3.5 161.5,3.5C 161.667,47.8346 161.5,92.1679 161,136.5C 153.789,168.042 134.956,189.209 104.5,200C 59.1552,208.901 26.9885,192.401 8,150.5C 6.41299,145.232 5.07965,139.899 4,134.5C 3.50001,90.8346 3.33334,47.1679 3.5,3.5 Z"/></g>
<g><path style="opacity:1" fill="#020100" d="M 83.5,96.5 C 78.7188,100.45 74.3854,104.95 70.5,110C 75.6715,110.494 76.8381,112.994 74,117.5C 68.6655,118.794 63.4989,120.627 58.5,123C 55.4166,128.088 51.5833,132.588 47,136.5C 46.8726,137.777 47.3726,138.943 48.5,140C 47.3528,142.444 46.0194,144.777 44.5,147C 41.7067,146.327 39.04,146.993 36.5,149C 34.473,151.027 32.473,153.027 30.5,155C 28.7111,155.52 27.0444,155.187 25.5,154C 22.8873,151.877 20.554,149.544 18.5,147C 25.6667,140.666 32.3334,133.833 38.5,126.5C 39.917,121.607 40.917,116.607 41.5,111.5C 47.4827,105.823 49.9827,107.49 49,116.5C 50.1299,112.69 52.1299,109.357 55,106.5C 62.136,100.365 68.9693,93.8651 75.5,87C 72.1408,88.2105 69.4741,87.2105 67.5,84C 63.4963,83.1194 59.4963,82.286 55.5,81.5C 54.52,78.9135 54.1866,76.2469 54.5,73.5C 55.8734,73.6567 57.2068,73.49 58.5,73C 52.8146,67.7545 46.8146,62.7545 40.5,58C 31.7358,56.0362 24.2358,51.8695 18,45.5C 15.0867,36.6145 14.0867,27.6145 15,18.5C 19.8687,24.0775 25.7021,27.9108 32.5,30C 27,25.8333 21.5,21.6667 16,17.5C 13.2928,14.1408 12.4595,10.4742 13.5,6.5C 18.9875,11.4778 25.3208,14.9778 32.5,17C 35.2728,19.3834 37.4395,22.2167 39,25.5C 39.6395,22.8877 40.8062,20.5543 42.5,18.5C 43.7229,21.9467 45.2229,25.2801 47,28.5C 50.4511,31.9559 53.1178,35.9559 55,40.5C 55.9533,38.5448 57.2866,36.8782 59,35.5C 60.0974,44.6968 62.0974,53.6968 65,62.5C 70.7329,68.3236 75.7329,74.6569 80,81.5C 85.8513,75.7958 88.518,68.7958 88,60.5C 89.335,57.518 91.1684,57.018 93.5,59C 92.2512,61.2096 92.4178,63.3763 94,65.5C 96,63.5 98,61.5 100,59.5C 101.45,52.4813 103.784,45.4813 107,38.5C 108,39.8333 109,41.1667 110,42.5C 112.454,36.0371 115.788,30.0371 120,24.5C 121.009,15.5533 122.842,15.5533 125.5,24.5C 127.69,22.476 130.023,20.6427 132.5,19C 140.237,18.3132 146.737,15.1466 152,9.5C 152.912,13.4525 152.245,17.1191 150,20.5C 144.676,23.6701 139.51,27.0034 134.5,30.5C 141.113,30.0859 146.613,27.0859 151,21.5C 151.343,28.612 148.509,34.112 142.5,38C 139.853,39.2989 137.186,40.6322 134.5,42C 138.734,42.4806 142.234,40.9806 145,37.5C 144.243,40.7837 143.243,44.117 142,47.5C 136.438,51.5291 130.271,54.3625 123.5,56C 120.066,59.7695 116.066,62.7695 111.5,65C 107.761,68.6167 103.928,72.1167 100,75.5C 94.2618,82.3941 88.7618,89.3941 83.5,96.5 Z"/></g>
<g><path style="opacity:1" fill="#cb0000" d="M 17.5,13.5 C 27.2578,15.2935 34.2578,20.6269 38.5,29.5C 39.6888,30.4287 41.0222,30.762 42.5,30.5C 42.7135,28.8561 42.3802,27.3561 41.5,26C 42,25.5 42.5,25 43,24.5C 45.2321,29.9647 48.2321,34.9647 52,39.5C 52.2256,42.095 52.7256,44.595 53.5,47C 54.3317,47.6877 54.9984,47.521 55.5,46.5C 56.154,44.8849 56.654,43.2182 57,41.5C 58.5369,48.2428 60.3703,54.9094 62.5,61.5C 59.9483,66.0431 56.4483,66.7098 52,63.5C 49.0984,60.6364 45.9317,58.1364 42.5,56C 34.1679,54.0013 26.8346,50.168 20.5,44.5C 19.3095,41.8263 18.4762,39.1596 18,36.5C 19.5,38 21,39.5 22.5,41C 26.3998,42.5651 30.0665,44.5651 33.5,47C 34.635,47.7494 35.635,47.5827 36.5,46.5C 34.8688,43.4036 32.8688,40.5702 30.5,38C 26.912,35.6227 23.412,33.1227 20,30.5C 18.2491,28.788 17.5825,26.788 18,24.5C 20.894,27.3614 24.0607,29.8614 27.5,32C 34.8684,33.9994 41.0351,37.8327 46,43.5C 46.2022,45.2556 46.7022,46.9223 47.5,48.5C 48.5,48.1667 49.1667,47.5 49.5,46.5C 47.7637,40.5992 44.097,36.4325 38.5,34C 34.1686,26.8273 28.1686,21.494 20.5,18C 18.8588,16.871 17.8588,15.371 17.5,13.5 Z"/></g>
<g><path style="opacity:1" fill="#cb0000" d="M 146.5,16.5 C 148.927,17.2789 148.927,18.4455 146.5,20C 143.254,21.8586 139.921,23.5252 136.5,25C 129.555,31.9218 122.388,38.7551 115,45.5C 113.459,47.477 112.959,49.477 113.5,51.5C 116.608,46.8885 120.275,42.7218 124.5,39C 131.825,35.3964 139.159,31.8964 146.5,28.5C 147.521,29.0016 147.688,29.6683 147,30.5C 141.938,34.8018 136.438,38.4685 130.5,41.5C 128.673,43.4872 127.673,45.8205 127.5,48.5C 131.243,47.4655 134.91,46.1322 138.5,44.5C 138.833,44.6667 139.167,44.8333 139.5,45C 138.5,46.6667 137.167,48 135.5,49C 131.757,50.1365 128.09,51.4698 124.5,53C 119.812,56.3626 115.145,59.6959 110.5,63C 108.527,63.4955 106.527,63.6621 104.5,63.5C 103.299,56.81 104.465,50.4767 108,44.5C 108.483,45.448 108.649,46.448 108.5,47.5C 109.675,47.719 110.675,47.3857 111.5,46.5C 114.512,38.9801 118.012,31.6468 122,24.5C 122.192,26.5767 122.692,28.5767 123.5,30.5C 127.876,24.3056 133.876,20.8056 141.5,20C 143.584,19.3028 145.251,18.1361 146.5,16.5 Z"/></g>
<g><path style="opacity:1" fill="#fe9900" d="M 22.5,36.5 C 24.6089,37.3909 26.6089,38.5576 28.5,40C 25.6493,40.32 23.6493,39.1533 22.5,36.5 Z"/></g>
<g><path style="opacity:1" fill="#fefffe" d="M 85.5,78.5 C 86.5593,80.0699 86.0593,81.4032 84,82.5C 83.7003,80.9343 84.2003,79.601 85.5,78.5 Z"/></g>
<g><path style="opacity:1" fill="#040404" d="M 83.5,96.5 C 85.7966,94.7059 87.9633,92.7059 90,90.5C 92.6667,92.5 95,94.8333 97,97.5C 97.6595,94.9528 97.4929,92.4528 96.5,90C 97.9442,87.9655 99.9442,87.1322 102.5,87.5C 102.835,92.1772 103.335,96.8439 104,101.5C 109.206,110.874 116.039,118.874 124.5,125.5C 125.452,123.955 125.785,122.288 125.5,120.5C 128.655,120.605 131.322,121.772 133.5,124C 131.699,130.179 132.533,136.012 136,141.5C 139.022,143.688 141.522,146.355 143.5,149.5C 140.641,154.264 136.641,156.264 131.5,155.5C 126.278,148.786 121.278,141.952 116.5,135C 112.391,133.626 109.057,131.292 106.5,128C 102.406,127.443 98.4063,126.61 94.5,125.5C 94.5,123.5 94.5,121.5 94.5,119.5C 97.1761,120.008 99.8428,120.175 102.5,120C 95.9302,112.273 89.5969,104.44 83.5,96.5 Z"/></g>
<g><path style="opacity:1" fill="#fefffe" d="M 69.5,102.5 C 72.0009,102.511 72.1676,103.178 70,104.5C 69.5357,103.906 69.369,103.239 69.5,102.5 Z"/></g>
<g><path style="opacity:1" fill="#fefffe" d="M 60.5,113.5 C 61.8018,110.025 64.1351,107.858 67.5,107C 65.2968,109.372 62.9635,111.539 60.5,113.5 Z"/></g>
<g><path style="opacity:1" fill="#fefffe" d="M 60.5,113.5 C 60.2172,114.289 59.7172,114.956 59,115.5C 58.4719,114.184 58.9719,113.517 60.5,113.5 Z"/></g>
<g><path style="opacity:1" fill="#fefffe" d="M 56.5,116.5 C 57.7103,118.176 57.2103,119.51 55,120.5C 54.7003,118.934 55.2003,117.601 56.5,116.5 Z"/></g>
<g><path style="opacity:1" fill="#fefffe" d="M 111.5,121.5 C 112.837,122.315 113.837,123.482 114.5,125C 112.522,124.967 111.522,123.8 111.5,121.5 Z"/></g>
<g><path style="opacity:1" fill="#fefffe" d="M -0.5,130.5 C 6.17911,171.179 29.5124,196.512 69.5,206.5C 46.1667,206.5 22.8333,206.5 -0.5,206.5C -0.5,181.167 -0.5,155.833 -0.5,130.5 Z"/></g>
<g><path style="opacity:1" fill="#fefffe" d="M 165.5,132.5 C 165.5,157.167 165.5,181.833 165.5,206.5C 142.167,206.5 118.833,206.5 95.5,206.5C 100.336,204.869 105.336,203.369 110.5,202C 141.756,188.926 160.089,165.759 165.5,132.5 Z"/></g>
<g><path style="opacity:1" fill="#000000" d="M 78.5,137.5 C 86.4904,138.058 94.4904,138.558 102.5,139C 104.602,143.308 103.269,145.808 98.5,146.5C 97.479,147.002 97.3123,147.668 98,148.5C 100.19,150.388 102.023,152.555 103.5,155C 108.175,157.336 112.508,160.169 116.5,163.5C 119.243,169.866 117.243,173.699 110.5,175C 111.582,181.11 108.915,184.61 102.5,185.5C 101.681,190.467 98.6807,192.634 93.5,192C 89.0334,196.301 83.7001,197.635 77.5,196C 74.4313,194.154 71.0979,193.154 67.5,193C 64.4173,189.592 60.7507,186.925 56.5,185C 55.2125,183.59 54.0458,182.09 53,180.5C 51.8814,176.929 50.2147,173.596 48,170.5C 47.5702,167.808 47.7369,165.141 48.5,162.5C 56.6969,159.481 63.6969,154.648 69.5,148C 67.6789,145.863 65.3456,145.03 62.5,145.5C 61.7517,143.416 61.7517,141.416 62.5,139.5C 67.9853,138.833 73.3187,138.167 78.5,137.5 Z"/></g>
<g><path style="opacity:1" fill="#ca0100" d="M 108.5,171.5 C 109.231,175.603 108.231,179.103 105.5,182C 104.5,182.667 103.5,182.667 102.5,182C 100.457,180.189 98.9567,178.022 98,175.5C 98.4674,179.226 99.1341,182.892 100,186.5C 98.3948,189.274 96.2281,189.94 93.5,188.5C 89.2529,174.326 86.0862,159.993 84,145.5C 84.7276,160.092 87.2276,174.425 91.5,188.5C 88.953,194.065 84.6197,195.899 78.5,194C 75.7671,192.702 74.4338,190.535 74.5,187.5C 75.8008,181.179 76.6341,174.846 77,168.5C 74.8715,175.348 73.5381,182.348 73,189.5C 71.2739,190.576 69.4406,190.743 67.5,190C 66.1667,188.667 64.8333,187.333 63.5,186C 65.3296,182.676 66.6629,179.176 67.5,175.5C 65.7583,178.643 63.7583,181.643 61.5,184.5C 56.7256,182.274 54.559,178.608 55,173.5C 58.6667,169.833 62.3333,166.167 66,162.5C 66.6667,161.833 66.6667,161.167 66,160.5C 62.0115,164.655 57.8449,168.655 53.5,172.5C 50.7495,171.284 49.5828,169.284 50,166.5C 61.1016,160.064 70.2683,151.564 77.5,141C 81.1738,139.478 84.8405,139.812 88.5,142C 95.7964,151.633 104.63,159.467 115,165.5C 115.637,170.839 113.47,172.839 108.5,171.5 Z"/></g>
<g><path style="opacity:1" fill="#cb0000" d="M 97.5,139.5 C 101.487,141.041 101.487,142.875 97.5,145C 94.7158,145.417 92.7158,144.25 91.5,141.5C 93.6309,140.831 95.6309,140.165 97.5,139.5 Z"/></g>
<g><path style="opacity:1" fill="#cb0000" d="M 64.5,140.5 C 68.1817,140.335 71.8484,140.501 75.5,141C 73.944,142.599 72.2773,144.099 70.5,145.5C 68.5832,143.568 66.5832,141.901 64.5,140.5 Z"/></g>
<g><path style="opacity:1" fill="#000000" d="M 79.5,158.5 C 79.5,156.167 79.5,153.833 79.5,151.5C 79.9383,149.362 80.1049,147.028 80,144.5C 81.9313,149.268 81.7646,153.935 79.5,158.5 Z"/></g>
<g><path style="opacity:1" fill="#000000" d="M 71.5,154.5 C 72.8089,151.222 74.6422,148.222 77,145.5C 76.7233,149.376 74.8899,152.376 71.5,154.5 Z"/></g>
<g><path style="opacity:1" fill="#000000" d="M 91.5,149.5 C 89.9153,148.998 89.4153,147.998 90,146.5C 91.0386,147.244 91.5386,148.244 91.5,149.5 Z"/></g>
<g><path style="opacity:1" fill="#000000" d="M 87.5,148.5 C 89.2385,150.119 89.7385,152.119 89,154.5C 88.187,152.564 87.687,150.564 87.5,148.5 Z"/></g>
<g><path style="opacity:1" fill="#000000" d="M 79.5,151.5 C 78.8333,152.167 78.1667,152.833 77.5,153.5C 77.3118,151.897 77.8118,150.563 79,149.5C 79.4643,150.094 79.631,150.761 79.5,151.5 Z"/></g>
<g><path style="opacity:1" fill="#000000" d="M 91.5,149.5 C 92.9063,149.973 93.573,150.973 93.5,152.5C 92.0937,152.027 91.427,151.027 91.5,149.5 Z"/></g>
<g><path style="opacity:1" fill="#000000" d="M 93.5,152.5 C 96.4707,154.443 98.4707,157.109 99.5,160.5C 97.016,158.2 95.016,155.533 93.5,152.5 Z"/></g>
<g><path style="opacity:1" fill="#000000" d="M 77.5,153.5 C 75.9523,157.598 74.1189,161.598 72,165.5C 72.4685,160.895 74.3019,156.895 77.5,153.5 Z"/></g>
<g><path style="opacity:1" fill="#000000" d="M 71.5,154.5 C 71.5,155.833 70.8333,156.5 69.5,156.5C 69.8333,155.5 70.5,154.833 71.5,154.5 Z"/></g>
<g><path style="opacity:1" fill="#000000" d="M 89.5,155.5 C 91.0986,156.799 91.5986,158.465 91,160.5C 89.9914,158.975 89.4914,157.308 89.5,155.5 Z"/></g>
<g><path style="opacity:1" fill="#000000" d="M 69.5,156.5 C 69.5386,157.756 69.0386,158.756 68,159.5C 67.4153,158.002 67.9153,157.002 69.5,156.5 Z"/></g>
<g><path style="opacity:1" fill="#000000" d="M 79.5,158.5 C 79.6488,161.607 79.1488,164.607 78,167.5C 77.4236,164.228 77.9236,161.228 79.5,158.5 Z"/></g>
<g><path style="opacity:1" fill="#000000" d="M 99.5,160.5 C 102.871,163.871 105.871,167.537 108.5,171.5C 104.426,168.755 101.426,165.088 99.5,160.5 Z"/></g>
<g><path style="opacity:1" fill="#000000" d="M 93.5,166.5 C 91.9014,165.201 91.4014,163.535 92,161.5C 93.2692,162.905 93.7692,164.571 93.5,166.5 Z"/></g>
<g><path style="opacity:1" fill="#000000" d="M 93.5,166.5 C 95.0986,167.799 95.5986,169.465 95,171.5C 93.9914,169.975 93.4914,168.308 93.5,166.5 Z"/></g>
<g><path style="opacity:1" fill="#000000" d="M 67.5,175.5 C 67.4914,173.692 67.9914,172.025 69,170.5C 69.5986,172.535 69.0986,174.201 67.5,175.5 Z"/></g>
</svg>

<svg xmlns="http://www.w3.org/2000/svg" width="166" height="207" style="shape-rendering:geometricPrecision;text-rendering:geometricPrecision;image-rendering:optimizeQuality;fill-rule:evenodd;clip-rule:evenodd"><path style="opacity:1" d="M-.5-.5h166v133c-5.411 33.259-23.744 56.426-55 69.5a236.853 236.853 0 0 0-15 4.5h-26c-39.988-9.988-63.32-35.321-70-76V-.5z"/><path style="opacity:1" fill="#fe9900" d="M3.5 3.5h158c.167 44.335 0 88.668-.5 133-7.211 31.542-26.044 52.709-56.5 63.5-45.345 8.901-77.511-7.599-96.5-49.5a173.132 173.132 0 0 1-4-16c-.5-43.665-.667-87.332-.5-131z"/><path style="opacity:1" fill="#020100" d="M83.5 96.5c-4.781 3.95-9.115 8.45-13 13.5 5.171.494 6.338 2.994 3.5 7.5a80.068 80.068 0 0 0-15.5 5.5c-3.083 5.088-6.917 9.588-11.5 13.5-.127 1.277.373 2.443 1.5 3.5a50.142 50.142 0 0 1-4 7c-2.793-.673-5.46-.007-8 2l-6 6c-1.789.52-3.456.187-5-1a47.282 47.282 0 0 1-7-7 193.7 193.7 0 0 0 20-20.5 90.882 90.882 0 0 0 3-15c5.983-5.677 8.483-4.01 7.5 5 1.13-3.81 3.13-7.143 6-10A282.187 282.187 0 0 0 75.5 87c-3.36 1.21-6.026.21-8-3a549.764 549.764 0 0 0-12-2.5 16.869 16.869 0 0 1-1-8 8.434 8.434 0 0 0 4-.5 234.755 234.755 0 0 0-18-15c-8.764-1.964-16.264-6.13-22.5-12.5-2.913-8.886-3.913-17.886-3-27 4.869 5.578 10.702 9.41 17.5 11.5L16 17.5c-2.707-3.36-3.54-7.026-2.5-11 5.488 4.978 11.82 8.478 19 10.5a25.565 25.565 0 0 1 6.5 8.5 17.344 17.344 0 0 1 3.5-7 67.09 67.09 0 0 0 4.5 10 36.676 36.676 0 0 1 8 12 14.505 14.505 0 0 1 4-5 138.364 138.364 0 0 0 6 27 109.935 109.935 0 0 1 15 19c5.851-5.704 8.518-12.704 8-21 1.335-2.982 3.168-3.482 5.5-1.5-1.249 2.21-1.082 4.376.5 6.5l6-6c1.45-7.019 3.784-14.019 7-21l3 4a71.524 71.524 0 0 1 10-18c1.009-8.947 2.842-8.947 5.5 0a55.454 55.454 0 0 1 7-5.5c7.737-.687 14.237-3.853 19.5-9.5.912 3.953.245 7.62-2 11a255.187 255.187 0 0 0-15.5 10c6.613-.414 12.113-3.414 16.5-9 .343 7.112-2.491 12.612-8.5 16.5a603.517 603.517 0 0 0-8 4c4.234.48 7.734-1.02 10.5-4.5a83.207 83.207 0 0 1-3 10c-5.562 4.03-11.729 6.862-18.5 8.5a39.617 39.617 0 0 1-12 9A269.68 269.68 0 0 1 100 75.5a470.455 470.455 0 0 0-16.5 21z"/><path style="opacity:1" fill="#cb0000" d="M17.5 13.5c9.758 1.793 16.758 7.127 21 16 1.189.929 2.522 1.262 4 1 .214-1.644-.12-3.144-1-4.5l1.5-1.5a57.158 57.158 0 0 0 9 15 33.995 33.995 0 0 0 1.5 7.5c.832.688 1.498.521 2-.5a28.04 28.04 0 0 0 1.5-5 234.48 234.48 0 0 0 5.5 20c-2.552 4.543-6.052 5.21-10.5 2a54.473 54.473 0 0 0-9.5-7.5c-8.332-1.999-15.665-5.832-22-11.5-1.19-2.674-2.024-5.34-2.5-8l4.5 4.5a53.214 53.214 0 0 1 11 6c1.135.75 2.135.583 3-.5a39.995 39.995 0 0 0-6-8.5A183.839 183.839 0 0 1 20 30.5c-1.75-1.712-2.418-3.712-2-6a54.117 54.117 0 0 0 9.5 7.5c7.368 2 13.535 5.833 18.5 11.5a14.73 14.73 0 0 0 1.5 5c1-.333 1.667-1 2-2-1.736-5.9-5.403-10.068-11-12.5-4.331-7.173-10.331-12.506-18-16-1.641-1.129-2.641-2.629-3-4.5zM146.5 16.5c2.427.779 2.427 1.945 0 3.5a98.922 98.922 0 0 1-10 5A678.286 678.286 0 0 1 115 45.5c-1.541 1.977-2.041 3.977-1.5 6a65.061 65.061 0 0 1 11-12.5 1021.68 1021.68 0 0 1 22-10.5c1.021.502 1.188 1.168.5 2a85.25 85.25 0 0 1-16.5 11c-1.827 1.987-2.827 4.32-3 7a74.49 74.49 0 0 0 11-4l1 .5c-1 1.667-2.333 3-4 4a108.221 108.221 0 0 0-11 4 4363.784 4363.784 0 0 1-14 10 18.437 18.437 0 0 1-6 .5c-1.201-6.69-.035-13.023 3.5-19 .483.948.649 1.948.5 3 1.175.219 2.175-.114 3-1a190.38 190.38 0 0 1 10.5-22 20.204 20.204 0 0 0 1.5 6c4.376-6.194 10.376-9.694 18-10.5 2.084-.697 3.751-1.864 5-3.5z"/><path style="opacity:1" fill="#fe9900" d="M22.5 36.5a27.548 27.548 0 0 1 6 3.5c-2.85.32-4.85-.847-6-3.5z"/><path style="opacity:1" fill="#fefffe" d="M85.5 78.5c1.06 1.57.56 2.903-1.5 4-.3-1.566.2-2.899 1.5-4z"/><path style="opacity:1" fill="#040404" d="M83.5 96.5a54.554 54.554 0 0 0 6.5-6c2.667 2 5 4.333 7 7 .66-2.547.493-5.047-.5-7.5 1.444-2.034 3.444-2.868 6-2.5a200.09 200.09 0 0 0 1.5 14c5.206 9.374 12.039 17.374 20.5 24 .952-1.545 1.285-3.212 1-5 3.155.105 5.822 1.272 8 3.5-1.801 6.179-.967 12.012 2.5 17.5a28.57 28.57 0 0 1 7.5 8c-2.859 4.764-6.859 6.764-12 6a431.239 431.239 0 0 1-15-20.5c-4.109-1.374-7.443-3.708-10-7a86.509 86.509 0 0 1-12-2.5v-6c2.676.508 5.343.675 8 .5a606.907 606.907 0 0 1-19-23.5z"/><path style="opacity:1" fill="#fefffe" d="M69.5 102.5c2.5.011 2.668.678.5 2a2.427 2.427 0 0 1-.5-2zM60.5 113.5c1.302-3.475 3.635-5.642 7-6.5a63.68 63.68 0 0 1-7 6.5zM60.5 113.5c-.283.789-.783 1.456-1.5 2-.528-1.316-.028-1.983 1.5-2zM56.5 116.5c1.21 1.676.71 3.01-1.5 4-.3-1.566.2-2.899 1.5-4zM111.5 121.5c1.337.815 2.337 1.982 3 3.5-1.978-.033-2.978-1.2-3-3.5zM-.5 130.5c6.68 40.679 30.012 66.012 70 76h-70v-76zM165.5 132.5v74h-70a236.853 236.853 0 0 1 15-4.5c31.256-13.074 49.589-36.241 55-69.5z"/><path style="opacity:1" d="M78.5 137.5c7.99.558 15.99 1.058 24 1.5 2.102 4.308.769 6.808-4 7.5-1.021.502-1.188 1.168-.5 2a26.9 26.9 0 0 1 5.5 6.5 66.876 66.876 0 0 1 13 8.5c2.743 6.366.743 10.199-6 11.5 1.082 6.11-1.585 9.61-8 10.5-.819 4.967-3.82 7.134-9 6.5-4.467 4.301-9.8 5.635-16 4-3.069-1.846-6.402-2.846-10-3-3.083-3.408-6.75-6.075-11-8a36.012 36.012 0 0 1-3.5-4.5 35.155 35.155 0 0 0-5-10 18.164 18.164 0 0 1 .5-8c8.197-3.019 15.197-7.852 21-14.5-1.821-2.137-4.154-2.97-7-2.5-.748-2.084-.748-4.084 0-6 5.485-.667 10.819-1.333 16-2z"/><path style="opacity:1" fill="#ca0100" d="M108.5 171.5c.731 4.103-.269 7.603-3 10.5-1 .667-2 .667-3 0-2.043-1.811-3.543-3.978-4.5-6.5a100.92 100.92 0 0 0 2 11c-1.605 2.774-3.772 3.44-6.5 2a297.086 297.086 0 0 1-9.5-43c.728 14.592 3.228 28.925 7.5 43-2.547 5.565-6.88 7.399-13 5.5-2.733-1.298-4.066-3.465-4-6.5a131.779 131.779 0 0 0 2.5-19 94.383 94.383 0 0 0-4 21c-1.726 1.076-3.56 1.243-5.5.5l-4-4a40.17 40.17 0 0 0 4-10.5 66.382 66.382 0 0 1-6 9c-4.774-2.226-6.941-5.892-6.5-11l11-11c.667-.667.667-1.333 0-2a212.828 212.828 0 0 1-12.5 12c-2.75-1.216-3.917-3.216-3.5-6 11.102-6.436 20.268-14.936 27.5-25.5 3.674-1.522 7.34-1.188 11 1 7.296 9.633 16.13 17.467 26.5 23.5.637 5.339-1.53 7.339-6.5 6z"/><path style="opacity:1" fill="#cb0000" d="M97.5 139.5c3.987 1.541 3.987 3.375 0 5.5-2.784.417-4.784-.75-6-3.5 2.13-.669 4.13-1.335 6-2zM64.5 140.5a60.93 60.93 0 0 1 11 .5 51.148 51.148 0 0 1-5 4.5c-1.917-1.932-3.917-3.599-6-5z"/><path style="opacity:1" d="M79.5 158.5v-7c.438-2.138.605-4.472.5-7 1.931 4.768 1.765 9.435-.5 14zM71.5 154.5a31.517 31.517 0 0 1 5.5-9c-.277 3.876-2.11 6.876-5.5 9zM91.5 149.5c-1.585-.502-2.085-1.502-1.5-3 1.039.744 1.539 1.744 1.5 3zM87.5 148.5c1.739 1.619 2.239 3.619 1.5 6a20.093 20.093 0 0 1-1.5-6z"/><path style="opacity:1" d="m79.5 151.5-2 2c-.188-1.603.312-2.937 1.5-4 .464.594.631 1.261.5 2zM91.5 149.5c1.406.473 2.073 1.473 2 3-1.406-.473-2.073-1.473-2-3zM93.5 152.5c2.97 1.943 4.97 4.609 6 8a27.68 27.68 0 0 1-6-8zM77.5 153.5a96.769 96.769 0 0 1-5.5 12c.469-4.605 2.302-8.605 5.5-12zM71.5 154.5c0 1.333-.667 2-2 2 .333-1 1-1.667 2-2zM89.5 155.5c1.599 1.299 2.099 2.965 1.5 5-1.009-1.525-1.509-3.192-1.5-5zM69.5 156.5c.039 1.256-.461 2.256-1.5 3-.585-1.498-.085-2.498 1.5-3zM79.5 158.5a21.347 21.347 0 0 1-1.5 9c-.576-3.272-.076-6.272 1.5-9zM99.5 160.5a71.118 71.118 0 0 1 9 11c-4.074-2.745-7.074-6.412-9-11zM93.5 166.5c-1.599-1.299-2.099-2.965-1.5-5 1.27 1.405 1.77 3.071 1.5 5zM93.5 166.5c1.599 1.299 2.099 2.965 1.5 5-1.009-1.525-1.509-3.192-1.5-5zM67.5 175.5c-.009-1.808.491-3.475 1.5-5 .599 2.035.099 3.701-1.5 5z"/></svg>
